X: 10382
T: Donald Blue
R: reel
M: 4/4
K: Dmajor
|:dBAF AFAB|dBAF E2D2|dBAF AFAd|BB2A B2e2:|
|:ABde fafd|fafd edB2|ABde fafd|BB2A B2d2:|

